X:1
T:Midnight, 85.85 D
T:Midnight, 85.85 D
T:Andrew L. Skoog, 1894
T:Public Domain Courtesy of the Cyber Hymnal™
C:Andrew L. Skoog, 1894
Z:Public Domain
Z:Courtesy of the Cyber Hymnal™
%%score ( 1 2 ) ( 3 4 )
L:1/8
Q:1/4=108
M:4/4
K:E
V:1 treble 
V:2 treble 
V:3 bass 
V:4 bass 
V:1
 G3 F E2 B,2 | C2 E2 C2 B,2 | [EG]3 [B,F] [B,E]2 C2 | [DF]6 z2 | G3 F E2 B,2 | C2 E2 C2 B,2 | %6
 [B,E]3 B, [EG]2 [DF]2 | E6 z2 | [GB]3 [Ac] [GB]2 [EG]2 | ([DF][EG]) ([FA][GB]) [FA]2 [EG]2 | %10
 [Ac]2 ([Bd][Ac]) [GB]2 [EG]2 | d8 ([CE][DF][EG] [FA]4) | [GB]3 [Ac] [GB]2 [EG]2 | %13
 (c^B) ([Ac][=Bd]) [ce]2 [Ac]2 | [GB]3 [EG] [FA]2 [DB]2 | [EG]6 z2 |] %16
V:2
 G3 F E2 B,2 | C2 E2 C2 B,2 | x6 C2 | x8 | G3 F E2 B,2 | C2 E2 C2 B,2 | x3 B, x4 | E6 x2 | x8 | %9
 x8 | x8 | [B,D] x14 | x8 | A2 x6 | x8 | x8 |] %16
V:3
 [E,B,]3 [E,A,] [E,G,]2 [E,G,]2 | [E,A,]2 [E,C]2 [E,A,]2 [E,G,]2 | [E,B,]3 [E,A,] [E,G,]2 [E,G,]2 | %3
 [B,,B,]6 z2 | [E,B,]3 [E,A,] [E,G,]2 [E,G,]2 | [E,A,]2 [E,C]2 [E,A,]2 [E,G,]2 | %6
 [B,,G,]3 [B,,G,] [B,,B,]2 [B,,A,]2 | [E,G,]6 z2 | [E,E]3 [E,E] [E,E]2 [E,B,]2 | %9
 B,2 B,2 [E,B,]2 [E,B,]2 | [A,,E]2 [A,,E]2 [E,E]2 [E,B,]2 | (B,CDE F4) x7 | %12
 [E,E]3 [E,E] [E,E]2 [E,E]2 | [A,,E]2 [A,E]2 [A,E]2 [A,E]2 | [B,E]3 B, [B,,B,]2 [B,,B,]2 | %15
 [E,B,]6 z2 |] %16
V:4
 x8 | x8 | x8 | x8 | x8 | x8 | x8 | x8 | x8 | B,2 B,2 x4 | x8 | B,,8 x7 | x8 | x8 | x3 B, x4 | %15
 x8 |] %16

